public/Icons/stars.svg

<svg width="81" height="13" viewBox="0 0 81 13" fill="none" xmlns="http://www.w3.org/2000/svg">
<path d="M6.49999 0C6.79304 0 7.06338 0.146534 7.20748 0.38348L9.03017 3.38062L12.3416 3.97463C12.6324 4.02681 12.8696 4.22178 12.9606 4.4835C13.0517 4.74523 12.9822 5.03221 12.7791 5.23248L10.3753 7.60409L10.9828 11.2C11.0296 11.4773 10.9069 11.7557 10.6642 11.923C10.4215 12.0901 10.0989 12.1184 9.82674 11.9964L6.49999 10.5044L3.17321 11.9964C2.90108 12.1184 2.5785 12.0901 2.33579 11.923C2.09308 11.7557 1.97035 11.4773 2.01718 11.2L2.62464 7.60409L0.220855 5.23248C0.0178569 5.03221 -0.0516892 4.74523 0.039351 4.4835C0.130391 4.22178 0.367592 4.02681 0.658404 3.97463L3.96982 3.38062L5.79251 0.38348C5.93661 0.146534 6.20695 0 6.49999 0Z" fill="#FFC536"/>
<path d="M23.5 0C23.793 0 24.0634 0.146534 24.2075 0.38348L26.0302 3.38062L29.3416 3.97463C29.6324 4.02681 29.8696 4.22178 29.9606 4.4835C30.0517 4.74523 29.9822 5.03221 29.7791 5.23248L27.3753 7.60409L27.9828 11.2C28.0296 11.4773 27.9069 11.7557 27.6642 11.923C27.4215 12.0901 27.0989 12.1184 26.8267 11.9964L23.5 10.5044L20.1732 11.9964C19.9011 12.1184 19.5785 12.0901 19.3358 11.923C19.0931 11.7557 18.9703 11.4773 19.0172 11.2L19.6246 7.60409L17.2209 5.23248C17.0179 5.03221 16.9483 4.74523 17.0394 4.4835C17.1304 4.22178 17.3676 4.02681 17.6584 3.97463L20.9698 3.38062L22.7925 0.38348C22.9366 0.146534 23.2069 0 23.5 0Z" fill="#FFC536"/>
<path d="M40.5 0C40.793 0 41.0634 0.146534 41.2075 0.38348L43.0302 3.38062L46.3416 3.97463C46.6324 4.02681 46.8696 4.22178 46.9606 4.4835C47.0517 4.74523 46.9822 5.03221 46.7791 5.23248L44.3753 7.60409L44.9828 11.2C45.0296 11.4773 44.9069 11.7557 44.6642 11.923C44.4215 12.0901 44.0989 12.1184 43.8267 11.9964L40.5 10.5044L37.1732 11.9964C36.9011 12.1184 36.5785 12.0901 36.3358 11.923C36.0931 11.7557 35.9703 11.4773 36.0172 11.2L36.6246 7.60409L34.2209 5.23248C34.0179 5.03221 33.9483 4.74523 34.0394 4.4835C34.1304 4.22178 34.3676 4.02681 34.6584 3.97463L37.9698 3.38062L39.7925 0.38348C39.9366 0.146534 40.2069 0 40.5 0Z" fill="#FFC536"/>
<path d="M57.5 0C57.793 0 58.0634 0.146534 58.2075 0.38348L60.0302 3.38062L63.3416 3.97463C63.6324 4.02681 63.8696 4.22178 63.9606 4.4835C64.0517 4.74523 63.9822 5.03221 63.7791 5.23248L61.3753 7.60409L61.9828 11.2C62.0296 11.4773 61.9069 11.7557 61.6642 11.923C61.4215 12.0901 61.0989 12.1184 60.8267 11.9964L57.5 10.5044L54.1732 11.9964C53.9011 12.1184 53.5785 12.0901 53.3358 11.923C53.0931 11.7557 52.9703 11.4773 53.0172 11.2L53.6246 7.60409L51.2209 5.23248C51.0179 5.03221 50.9483 4.74523 51.0394 4.4835C51.1304 4.22178 51.3676 4.02681 51.6584 3.97463L54.9698 3.38062L56.7925 0.38348C56.9366 0.146534 57.2069 0 57.5 0Z" fill="#FFC536"/>
<g opacity="0.3">
<path d="M74.5 0C74.793 0 75.0634 0.146534 75.2075 0.38348L77.0302 3.38062L80.3416 3.97463C80.6324 4.02681 80.8696 4.22178 80.9606 4.4835C81.0517 4.74523 80.9822 5.03221 80.7791 5.23248L78.3753 7.60409L78.9828 11.2C79.0296 11.4773 78.9069 11.7557 78.6642 11.923C78.4215 12.0901 78.0989 12.1184 77.8267 11.9964L74.5 10.5044L71.1732 11.9964C70.9011 12.1184 70.5785 12.0901 70.3358 11.923C70.0931 11.7557 69.9703 11.4773 70.0172 11.2L70.6246 7.60409L68.2209 5.23248C68.0179 5.03221 67.9483 4.74523 68.0394 4.4835C68.1304 4.22178 68.3676 4.02681 68.6584 3.97463L71.9698 3.38062L73.7925 0.38348C73.9366 0.146534 74.2069 0 74.5 0Z" fill="#7A7687"/>
</g>
</svg>

<svg width="81" height="13" fill="none" xmlns="http://www.w3.org/2000/svg"><path d="M6.5 0c.293 0 .563.147.707.383L9.03 3.381l3.312.594c.29.052.528.247.619.509a.715.715 0 0 1-.182.748l-2.404 2.372.608 3.596a.73.73 0 0 1-.319.723.865.865 0 0 1-.837.073L6.5 10.504l-3.327 1.492a.865.865 0 0 1-.837-.073.73.73 0 0 1-.319-.723l.608-3.596L.22 5.232a.716.716 0 0 1-.182-.748.795.795 0 0 1 .62-.51l3.31-.593L5.794.383A.825.825 0 0 1 6.5 0ZM23.5 0c.293 0 .563.147.707.383l1.823 2.998 3.312.594c.29.052.528.247.619.509a.715.715 0 0 1-.182.748l-2.404 2.372.608 3.596a.73.73 0 0 1-.319.723.865.865 0 0 1-.837.073L23.5 10.504l-3.327 1.492a.865.865 0 0 1-.837-.073.73.73 0 0 1-.319-.723l.608-3.596-2.404-2.372a.715.715 0 0 1-.182-.748.795.795 0 0 1 .62-.51l3.31-.593L22.793.383A.825.825 0 0 1 23.5 0ZM40.5 0c.293 0 .563.147.708.383l1.822 2.998 3.312.594c.29.052.528.247.619.509a.715.715 0 0 1-.182.748l-2.404 2.372.608 3.596a.73.73 0 0 1-.319.723.865.865 0 0 1-.837.073L40.5 10.504l-3.327 1.492a.865.865 0 0 1-.837-.073.73.73 0 0 1-.319-.723l.608-3.596-2.404-2.372a.715.715 0 0 1-.182-.748.795.795 0 0 1 .62-.51l3.31-.593L39.793.383A.825.825 0 0 1 40.5 0ZM57.5 0c.293 0 .563.147.708.383l1.822 2.998 3.312.594c.29.052.528.247.619.509a.715.715 0 0 1-.182.748l-2.404 2.372.608 3.596a.73.73 0 0 1-.319.723.865.865 0 0 1-.837.073L57.5 10.504l-3.327 1.492a.865.865 0 0 1-.837-.073.73.73 0 0 1-.319-.723l.608-3.596-2.404-2.372a.715.715 0 0 1-.182-.748.795.795 0 0 1 .62-.51l3.31-.593L56.793.383A.825.825 0 0 1 57.5 0Z" fill="#FFC536"/><path d="M74.5 0c.293 0 .563.147.707.383l1.823 2.998 3.312.594c.29.052.528.247.619.509a.715.715 0 0 1-.182.748l-2.404 2.372.608 3.596a.73.73 0 0 1-.319.723.865.865 0 0 1-.837.073L74.5 10.504l-3.327 1.492a.865.865 0 0 1-.837-.073.73.73 0 0 1-.319-.723l.608-3.596-2.404-2.372a.715.715 0 0 1-.182-.748.795.795 0 0 1 .62-.51l3.31-.593L73.794.383A.825.825 0 0 1 74.5 0Z" fill="#7A7687" opacity=".3"/></svg>
